src/assets/icons/sandwich_menu.svg

<svg width="30" height="30" viewBox="0 0 30 30" fill="inherit" xmlns="http://www.w3.org/2000/svg">
    <path d="M29.9908 27.653L29.9863 25.3873L29.9817 23.0635L29.9771 20.7514L27.2715 20.7552V20.7397H27.2806L27.2761 18.416L27.2715 16.1503L27.2669 13.8265L27.2623 11.5492H27.2669L29.9725 11.5453L29.968 9.22153L29.9634 6.95585L29.9588 4.63207L29.9542 2.31991L27.2577 2.32378L27.2532 0L24.575 0.00387297L21.8282 0.00774593L19.0951 0.0116189L16.3482 0.0154919L13.6151 0.0193648L10.8683 0.0232378L8.12147 0.0271108L5.44331 0.0309837L2.69648 0.0348567L2.70105 2.35864L2.70563 4.6708L2.71021 6.99458L2.71479 9.22541L0 9.21766L0.00457806 11.5414L0.00915611 13.8536L0.0137342 16.1774L0.0183122 18.4431L2.76515 18.4392V18.4547H2.71479L2.71937 20.7785L2.72394 23.0906L2.72852 25.4144L2.7331 27.6801L5.47993 27.6762L5.48451 30L8.16267 29.9961L10.9095 29.9923L13.6563 29.9884L16.3894 29.9845L19.1363 29.9806L21.8694 29.9768L24.6162 29.9729L27.2944 29.969L30 29.9651L29.9908 27.653ZM5.44789 4.65918L5.44331 2.34702L8.12147 2.34314L10.8683 2.33927L13.6151 2.3354L16.3482 2.33153L19.0951 2.32765L21.8282 2.32378L24.575 2.31991L24.5796 4.63207L24.5842 6.95585L21.8373 6.95972L19.1042 6.96359L16.3574 6.96747L13.6243 6.97134L10.8775 6.97521L8.13063 6.97909L5.45246 6.98296L5.44789 4.65918ZM2.75599 16.1735L2.75141 13.8497L2.74683 11.5376L5.425 11.5337H5.45246V11.5724L8.13063 11.5686L10.8775 11.5647L13.6243 11.5608L16.3574 11.5569L19.1042 11.5531L21.8373 11.5492H21.874L21.8785 13.8265L21.8831 16.1503L19.1363 16.1541L16.4032 16.158L13.6563 16.1619L10.9232 16.1658L8.17641 16.1696L5.42957 16.1735H2.75599ZM5.4662 25.4144L5.46162 23.0906L5.45704 20.7785L8.13521 20.7746L10.882 20.7707L13.6289 20.7668L16.362 20.763L19.1088 20.7591L21.8419 20.7552L24.5887 20.7514L24.5933 23.0635L24.5979 25.3873L21.8511 25.3912L19.118 25.395L16.3711 25.3989L13.638 25.4028L10.8912 25.4067L8.14436 25.4105L5.4662 25.4144Z" fill="inherit"/>
</svg>

<svg width="30" height="30" fill="inherit" xmlns="http://www.w3.org/2000/svg"><path d="m29.99 27.653-.004-2.266-.004-2.323-.005-2.313-2.706.004v-.015h.01l-.005-2.324-.005-2.266-.004-2.323-.005-2.278h.005l2.706-.004-.005-2.323-.005-2.266-.004-2.324-.005-2.312-2.696.004L27.253 0l-2.678.004-2.747.004-2.733.004-2.747.003-2.733.004-2.747.004-2.747.004-2.678.004-2.747.004.005 2.324.005 2.312.004 2.324.005 2.23L0 9.218l.005 2.323.004 2.313.005 2.323.004 2.266 2.747-.004v.016h-.05l.004 2.324.005 2.312.005 2.323.004 2.266 2.747-.004L5.485 30l2.678-.004 2.746-.004 2.747-.004 2.733-.003 2.747-.004 2.733-.004 2.747-.004 2.678-.004L30 29.965l-.01-2.312zM5.449 4.659l-.005-2.312 2.678-.004 2.747-.004 2.747-.004 2.733-.003 2.747-.004 2.733-.004 2.747-.004.005 2.312.004 2.324-2.747.004-2.733.004-2.747.003-2.733.004-2.747.004-2.746.004-2.679.004-.004-2.324zM2.756 16.174l-.005-2.324-.004-2.312 2.678-.004h.027v.038l2.679-.003 2.746-.004 2.747-.004 2.733-.004 2.747-.004 2.733-.004h.037l.005 2.277.004 2.324-2.747.004-2.733.004-2.747.004-2.733.004-2.747.004-2.746.003H2.756zm2.71 9.24-.004-2.323-.005-2.313 2.678-.003 2.747-.004 2.747-.004 2.733-.004 2.747-.004 2.733-.004 2.747-.004.004 2.313.005 2.323-2.747.004-2.733.004-2.747.004-2.733.004-2.747.004-2.747.003-2.678.004z"/></svg>
